packages/components/bolt-icons/src/svgs/product/industry/retail.svg

<?xml version="1.0" encoding="UTF-8" standalone="no"?>
<svg width="32px" height="32px" viewBox="0 0 32 32" version="1.1" xmlns="http://www.w3.org/2000/svg" xmlns:xlink="http://www.w3.org/1999/xlink">
    <!-- Generator: Sketch 47.1 (45422) - http://www.bohemiancoding.com/sketch -->
    <title>Icon/Industry/Retail</title>
    <desc>Created with Sketch.</desc>
    <defs></defs>
    <g id="Symbols" stroke="none" stroke-width="1" fill="none" fill-rule="evenodd">
        <g id="Icon/Industry/Retail" fill="#1F2555">
            <path d="M29,28.9991 C29,29.5521 28.553,30.0001 28,30.0001 L17,30.0001 L17,11.4271 L23,14.0001 C24.104,14.0001 25,13.1041 25,12.0001 L25,7.0001 L28,7.0001 C28.553,7.0001 29,7.4471 29,8.0001 L29,28.9991 Z M23,4.3511 L23,11.0001 C23,11.5521 22.553,12.0001 22,12.0001 L17.567,9.7831 L23,4.3511 Z M9.612,2.2561 C9.573,2.2171 9.523,2.1981 9.479,2.1671 C9.633,2.0701 9.805,2.0001 10,2.0001 L22,2.0001 C22.2,2.0001 22.375,2.0731 22.531,2.1741 C22.474,2.2101 22.412,2.2361 22.362,2.2861 L16.002,8.6461 L9.612,2.2561 Z M15,30.0001 L4,30.0001 C3.448,30.0001 3,29.5521 3,28.9991 L3,8.0001 C3,7.4471 3.448,7.0001 4,7.0001 L7,7.0001 L7,12.0001 C7,13.1041 7.896,14.0001 9,14.0001 L15,11.4301 L15,30.0001 Z M9,4.3541 L14.43,9.7851 L10,12.0001 C9.448,12.0001 9,11.5521 9,11.0001 L9,4.3541 Z M29,5.0001 L25,5.0001 L25,2.0001 C25,0.8951 24.104,0.0001 23,0.0001 L9,0.0001 C7.896,0.0001 7,0.8951 7,2.0001 L7,5.0001 L3,5.0001 C1.896,5.0001 1,5.8951 1,7.0001 L1,30.0001 C1,31.1041 1.896,31.9991 3,31.9991 L29,31.9991 C30.104,31.9991 31,31.1041 31,30.0001 L31,7.0001 C31,5.8951 30.104,5.0001 29,5.0001 L29,5.0001 Z M19,19.9991 L27,19.9991 L27,17.9991 L19,17.9991 L19,19.9991 Z" id="Page-1"></path>
        </g>
    </g>
</svg>

<svg id="ea0aba77-7d8d-4792-b976-9ad471861d21" data-name="Layer 1" xmlns="http://www.w3.org/2000/svg" viewBox="0 0 30 32"><title>retail</title><path id="ba2c2d66-2938-46eb-aae8-49a8afaf9b45" data-name="Page-1" d="M29,29a.94.94,0,0,1-1,1H17V11.4L23,14a2,2,0,0,0,2-2V7h3a.94.94,0,0,1,1,1ZM23,4.4V11a.94.94,0,0,1-1,1L17.6,9.8ZM9.6,2.3l-.1-.1A.76.76,0,0,1,10,2H22a.76.76,0,0,1,.5.2c-.1,0-.1.1-.2.1L16,8.6ZM15,30H4a.94.94,0,0,1-1-1V8A.94.94,0,0,1,4,7H7v5a2,2,0,0,0,2,2l6-2.6ZM9,4.4l5.4,5.4L10,12a.94.94,0,0,1-1-1ZM29,5H25V2a2,2,0,0,0-2-2H9A2,2,0,0,0,7,2V5H3A2,2,0,0,0,1,7V30a2,2,0,0,0,2,2H29a2,2,0,0,0,2-2V7a2,2,0,0,0-2-2ZM19,20h8V18H19Z" transform="translate(-1)" fill="#1f2555" fill-rule="evenodd"/></svg>
